X: 1
T: Povrateno [A]
O: Greece
S: Seymour Shlien
M: 4/4
L: 1/8
Q: 1/4=84
K: A_B^c
|: .A.A/.A/ .A.A .E.E A2 | .A.A/.A/ .A.A .E.E Az :| 
|: AA/A/ Ae e/d/e/d/ cB | AB/A/ GA BA Az :| 
|: cB/c/ BA AB cd | cB/c/ BA GA Az :|
